svg/color/babyeth.svg

<?xml version="1.0" encoding="UTF-8" ?>
<!DOCTYPE svg PUBLIC "-//W3C//DTD SVG 1.1//EN" "http://www.w3.org/Graphics/SVG/1.1/DTD/svg11.dtd">
<svg width="250pt" height="250pt" viewBox="0 0 250 250" version="1.1" xmlns="http://www.w3.org/2000/svg">
<g id="#fffffeff">
<path fill="#fffffe" opacity="1.00" d=" M 0.00 0.00 L 250.00 0.00 L 250.00 250.00 L 0.00 250.00 L 0.00 0.00 M 140.21 36.09 C 137.20 38.51 142.58 49.30 137.74 44.26 C 131.07 38.07 118.11 37.89 113.59 46.63 C 110.08 55.69 120.39 61.40 128.01 61.23 C 128.28 64.11 124.23 63.60 122.33 64.41 C 99.36 66.39 76.81 77.45 63.72 96.82 C 53.45 94.41 41.09 93.62 33.17 102.17 C 22.41 111.05 22.32 128.01 30.17 138.82 C 34.71 146.25 43.11 149.50 50.83 152.20 C 55.82 177.49 73.80 199.88 98.15 208.81 C 120.12 217.59 146.42 214.31 165.85 200.90 C 183.11 189.86 194.03 171.12 198.18 151.33 C 209.57 149.78 219.65 140.84 222.93 129.92 C 227.19 117.96 221.31 103.67 209.95 98.07 C 202.57 92.82 193.34 95.41 185.29 96.79 C 173.97 80.97 156.71 70.59 137.99 65.98 C 141.58 59.33 148.21 53.95 148.83 46.08 C 147.61 41.86 147.58 32.83 140.21 36.09 Z" />
<path fill="#fffffe" opacity="1.00" d=" M 123.36 48.30 C 126.92 47.64 131.42 48.20 133.80 51.26 C 134.92 57.73 115.19 52.00 123.36 48.30 Z" />
<path fill="#fffffe" opacity="1.00" d=" M 47.39 103.46 C 49.73 103.23 59.54 101.37 57.57 106.65 C 52.63 118.15 49.61 130.48 49.87 143.06 C 29.48 141.06 26.11 106.59 47.39 103.46 Z" />
<path fill="#fffffe" opacity="1.00" d=" M 192.37 103.36 C 200.87 101.11 210.88 105.28 214.66 113.31 C 220.40 125.49 211.62 140.40 199.15 143.10 C 199.05 130.20 196.41 117.17 190.43 105.68 C 189.20 103.97 191.11 103.74 192.37 103.36 Z" />
</g>
<g id="#efdc2aff">
<path fill="#efdc2a" opacity="1.00" d=" M 140.21 36.09 C 147.58 32.83 147.61 41.86 148.83 46.08 C 148.21 53.95 141.58 59.33 137.99 65.98 C 156.71 70.59 173.97 80.97 185.29 96.79 C 193.34 95.41 202.57 92.82 209.95 98.07 C 221.31 103.67 227.19 117.96 222.93 129.92 C 219.65 140.84 209.57 149.78 198.18 151.33 C 194.03 171.12 183.11 189.86 165.85 200.90 C 146.42 214.31 120.12 217.59 98.15 208.81 C 73.80 199.88 55.82 177.49 50.83 152.20 C 43.11 149.50 34.71 146.25 30.17 138.82 C 22.32 128.01 22.41 111.05 33.17 102.17 C 41.09 93.62 53.45 94.41 63.72 96.82 C 76.81 77.45 99.36 66.39 122.33 64.41 C 124.23 63.60 128.28 64.11 128.01 61.23 C 120.39 61.40 110.08 55.69 113.59 46.63 C 118.11 37.89 131.07 38.07 137.74 44.26 C 142.58 49.30 137.20 38.51 140.21 36.09 M 123.36 48.30 C 115.19 52.00 134.92 57.73 133.80 51.26 C 131.42 48.20 126.92 47.64 123.36 48.30 M 47.39 103.46 C 26.11 106.59 29.48 141.06 49.87 143.06 C 49.61 130.48 52.63 118.15 57.57 106.65 C 59.54 101.37 49.73 103.23 47.39 103.46 M 192.37 103.36 C 191.11 103.74 189.20 103.97 190.43 105.68 C 196.41 117.17 199.05 130.20 199.15 143.10 C 211.62 140.40 220.40 125.49 214.66 113.31 C 210.88 105.28 200.87 101.11 192.37 103.36 Z" />
</g>
</svg>

<?xml version="1.0" encoding="utf-8"?>
<!-- Generator: Adobe Illustrator 26.0.3, SVG Export Plug-In . SVG Version: 6.00 Build 0)  -->
<svg version="1.1" id="Layer_1" xmlns="http://www.w3.org/2000/svg" xmlns:xlink="http://www.w3.org/1999/xlink" x="0px" y="0px"
	 viewBox="0 0 250 250" style="enable-background:new 0 0 250 250;" xml:space="preserve">
<style type="text/css">
	.st0{fill:#FFFFFF;}
	.st1{fill:#FFFFFE;}
	.st2{fill:#EFDC2A;}
</style>
<circle class="st0" cx="125" cy="125.5" r="125"/>
<g id="_x23_fffffeff">
	<path class="st1" d="M123.4,48.3c3.6-0.7,8.1-0.1,10.4,3C134.9,57.7,115.2,52,123.4,48.3z"/>
	<path class="st1" d="M47.4,103.5c2.3-0.2,12.2-2.1,10.2,3.2c-4.9,11.5-8,23.8-7.7,36.4C29.5,141.1,26.1,106.6,47.4,103.5z"/>
	<path class="st1" d="M192.4,103.4c8.5-2.2,18.5,1.9,22.3,9.9c5.7,12.2-3,27.1-15.5,29.8c-0.1-12.9-2.7-25.9-8.7-37.4
		C189.2,104,191.1,103.7,192.4,103.4z"/>
</g>
<g id="_x23_efdc2aff">
	<path class="st2" d="M140.2,36.1c7.4-3.3,7.4,5.8,8.6,10C148.2,54,141.6,59.3,138,66c18.7,4.6,36,15,47.3,30.8
		c8.1-1.4,17.3-4,24.7,1.3c11.4,5.6,17.2,19.9,13,31.8c-3.3,10.9-13.4,19.9-24.8,21.4c-4.1,19.8-15.1,38.5-32.3,49.6
		c-19.4,13.4-45.7,16.7-67.7,7.9c-24.3-8.9-42.3-31.3-47.3-56.6c-7.7-2.7-16.1-5.9-20.7-13.4c-7.9-10.8-7.8-27.8,3-36.7
		c7.9-8.5,20.3-7.8,30.6-5.3c13.1-19.4,35.6-30.4,58.6-32.4c1.9-0.8,5.9-0.3,5.7-3.2c-7.6,0.2-17.9-5.5-14.4-14.6
		c4.5-8.7,17.5-8.6,24.2-2.4C142.6,49.3,137.2,38.5,140.2,36.1 M123.4,48.3c-8.2,3.7,11.6,9.4,10.4,3
		C131.4,48.2,126.9,47.6,123.4,48.3 M47.4,103.5c-21.3,3.1-17.9,37.6,2.5,39.6c-0.3-12.6,2.8-24.9,7.7-36.4
		C59.5,101.4,49.7,103.2,47.4,103.5 M192.4,103.4c-1.3,0.4-3.2,0.6-1.9,2.3c6,11.5,8.6,24.5,8.7,37.4c12.5-2.7,21.2-17.6,15.5-29.8
		C210.9,105.3,200.9,101.1,192.4,103.4z"/>
</g>
</svg>
